X:15850
T:Sporting Paddy
R:reel
S:Session
H:Version 2 is from Paddy Glackin / John Doherty
D:Kevin Crawford: D Flute Album
D:Paddy Glackin: In Full Spate
Z:id:hn-reel-413
M:C|
K:Ador
EA~A2 GABG|EA~A2 G2ED|EA~A2 GABd|1 edge dBAG:|2 edge d2ef||
ge~e2 gede|ge~e2 a2ba|ge~e2 gedg|efge d2ef|
ge~e2 gede|ge~e2 a2ga|bgaf gedg|efge dBAG||
